public/img/phone.svg

<svg width="18" height="18" viewBox="0 0 18 18" fill="none" xmlns="http://www.w3.org/2000/svg">
<path fill-rule="evenodd" clip-rule="evenodd" d="M3.19566 0.520011C3.85742 -0.143083 4.99754 -0.215791 5.66753 0.557269L8.41545 3.7292C8.4222 3.73644 8.42883 3.74382 8.43535 3.75135C9.0402 4.44965 8.91638 5.45753 8.31422 6.06261L8.31304 6.0638L7.43581 6.94167C8.34121 8.41081 9.57706 9.64848 11.0448 10.556L11.9239 9.67568C12.5263 9.07182 13.531 8.94698 14.2288 9.54599C14.2288 9.546 14.2288 9.54597 14.2288 9.54599L17.4358 12.2989C18.2152 12.9685 18.1435 14.114 17.4798 14.7777L15.183 17.0786C14.2818 17.9809 12.9048 18.2745 11.7564 17.7168C6.74676 15.2885 2.70379 11.2398 0.282583 6.22665C-0.27401 5.07817 0.0192332 3.70175 0.919674 2.80009M0.919674 2.80009L3.19566 0.520011C3.1957 0.519971 3.19562 0.52005 3.19566 0.520011M10.7953 10.8062C10.7976 10.8038 10.7999 10.8014 10.8023 10.7991L10.7953 10.8062ZM7.18681 7.19054L7.19411 7.1834C7.19171 7.18581 7.18928 7.18818 7.18681 7.19054ZM7.19444 4.81574C7.19448 4.81571 7.19463 4.81608 7.1948 4.81691L7.19444 4.81574ZM7.19515 4.81948L4.43755 1.63639C4.43657 1.63633 4.43545 1.63629 4.43419 1.6363C4.41769 1.63635 4.38609 1.64348 4.3538 1.67584L2.0777 3.95603C1.62384 4.41044 1.52908 5.04753 1.75529 5.51365L1.75596 5.51504C4.01693 10.1964 7.79237 13.9771 12.4705 16.2446C12.9354 16.4704 13.5715 16.3765 14.025 15.9226C14.0251 15.9225 14.025 15.9226 14.025 15.9226L16.3223 13.6212C16.3549 13.5886 16.3628 13.5558 16.3629 13.5384C16.3629 13.5368 16.3628 13.5354 16.3627 13.5342L13.1678 10.7916C13.1659 10.7915 13.163 10.7914 13.159 10.7917C13.141 10.793 13.1113 10.8022 13.0823 10.8313L11.9708 11.9444C11.7911 12.129 11.5564 12.2508 11.3017 12.2913C11.0431 12.3325 10.7781 12.2876 10.5474 12.1636C10.5437 12.1616 10.54 12.1596 10.5363 12.1575C10.5331 12.1557 10.5298 12.1538 10.5265 12.152C8.5772 11.0294 6.9602 9.41033 5.84021 7.45954C5.83641 7.45292 5.83271 7.44626 5.8291 7.43954C5.70508 7.20882 5.66018 6.94379 5.70127 6.6851C5.74173 6.43041 5.86333 6.19572 6.04782 6.01585L7.15444 4.90843C7.15457 4.9083 7.15432 4.90855 7.15444 4.90843C7.184 4.87855 7.19381 4.84753 7.19511 4.82872C7.1954 4.82457 7.19533 4.82156 7.19515 4.81948ZM13.1709 10.7922C13.1709 10.7922 13.1705 10.7921 13.1699 10.7919L13.1709 10.7922ZM13.163 10.7875C13.1631 10.7875 13.163 10.7875 13.163 10.7875V10.7875Z" fill="#08A6BB"/>
</svg>

<svg width="18" height="18" fill="none" xmlns="http://www.w3.org/2000/svg"><path fill-rule="evenodd" clip-rule="evenodd" d="M3.196.52c.661-.663 1.802-.736 2.472.037L8.415 3.73a.81.81 0 01.02.022c.605.699.481 1.707-.12 2.312h-.002l-.877.879a11.09 11.09 0 003.609 3.614l.879-.88c.602-.604 1.607-.729 2.305-.13l3.207 2.753c.78.67.707 1.815.044 2.479l-2.297 2.3c-.901.903-2.278 1.197-3.427.639A24.712 24.712 0 01.283 6.227C-.274 5.078.019 3.702.92 2.8m0 0L3.196.52m7.6 10.286l.006-.007-.007.007zm-3.61-3.615l.008-.008a.41.41 0 01-.007.008zm.008-2.375zm.001.003L4.438 1.636h-.004a.12.12 0 00-.08.04l-2.276 2.28c-.454.454-.549 1.092-.323 1.558l.001.001a23.076 23.076 0 0010.714 10.73c.465.225 1.101.131 1.555-.322l2.297-2.302a.124.124 0 00.04-.087l-3.194-2.742h-.009a.125.125 0 00-.077.04l-1.111 1.112a1.196 1.196 0 01-1.435.213l-.01-.005A12.728 12.728 0 015.83 7.44a1.197 1.197 0 01.219-1.424l1.106-1.108c.03-.03.04-.06.041-.08a.06.06 0 000-.009zm5.976 5.973h-.001zm-.008-.005z" fill="#08A6BB"/></svg>
